X:1
T:Title
%%score [ ( 1 2 ) ( 3 4 ) ]
L:1/8
Q:1/4=240
M:4/4
K:Ab
V:1 treble nm="Midi_74"
V:2 treble 
V:3 bass nm="Midi_74"
V:4 bass 
V:1
 c8 | c4 e4 | A8 || d8 | d4 c4 | B4 B4 |"^F. A. Gore Ouseley\n(1825-89)" A8 |] %7
V:2
 E8 | E4 E4 | C8 || D8 | E4 E4 | E4 E2 D2 | C8 |] %7
V:3
 A,8 | A,4 B,4 | C8 || A,8 | B,4 A,4 | A,4 G,4 | A,8 |] %7
V:4
 A,8 | A,4 G,4 | F,8 || F,8 | G,4 A,4 | E,4 E,4 | A,,8 |] %7

